X:1151
L:1/8
M:4/4
K:D
 d2 fd BAFB | AD FE/D/ FAAB | d2 fd BAFB | ABdf e2 d2 :| faag fddg | fgaf g2 fe | faag fddf | 
 edcd B2 A2 | faag fddg | fgaf g2 fe | fgef d2 dB | ABdf e2 d2 ||

